X: 4298
T: Bobers Of Brechin, The
R: reel
M: 4/4
K: Dmixolydian
|:F|"D"Addc "D"d2Ac|"G"GAcd "Am"AcGc|"D"Addc "D"d2Ad|"Am"cAGE "D"~D3F|
"D"Addc "D"d2Ac|"G"GAcd "Am"cAGA|"G"GAcd "Am"AcGc|"Am"AcGE "D"D3:|
|:A|"D"~D3A "D"FDAB|"Am"cAGc "C"EFGE|"D"~D3A "D"FDAd|"Am"cAGE "D"D3A|
"D"~D3A "D"FDAB|"Am"cAGc "C"~E3F|"D"DEFG "Am"ABcd|"Am"cAGE "D"D2D:|

